exported-svg/triangle.svg

<svg height="24" viewBox="0 0 24 24" width="24" xmlns="http://www.w3.org/2000/svg"><path d="m9.80858749 3.20580846-8.47 14.14000004c-.44825952.7761548-.45091164 1.7233389-.0110284 2.4950639.43988323.771725 1.25623187 1.2520786 2.14446685 1.2618716h16.94549526c.8937302-.009793 1.7100789-.4901466 2.1499621-1.2618716s.4372311-1.7189091-.0069668-2.4881586l-8.4740616-14.14690534c-.4546408-.7495268-1.265076-1.20580846-2.1389337-1.20580846s-1.6842929.45628166-2.1375 1.20343001zm2.13893371-.20580846c.5243146 0 1.0105758.27376899 1.2825.722058l8.4685663 14.1376215c.2624572.4546444.2640485 1.0229549.0001185 1.4859899-.2639299.4630349-.7537391.7512471-1.2866801.7571048h-16.9345047c-.52744572-.0058577-1.0172549-.2940699-1.28118484-.7571048-.26392994-.463035-.26233867-1.0313455.00418011-1.4928952l8.46593843-14.13309466c.2704905-.44591055.7567517-.71967954 1.2810663-.71967954z"/></svg>

<?xml version="1.0" encoding="UTF-8"?>
<svg width="24px" height="24px" viewBox="0 0 24 24" version="1.1" xmlns="http://www.w3.org/2000/svg" xmlns:xlink="http://www.w3.org/1999/xlink">
    <!-- Generator: Sketch 55.2 (78181) - https://sketchapp.com -->
    <title>triangle</title>
    <desc>Created with Sketch.</desc>
    <g id="triangle" stroke="none" stroke-width="1" fill="none" fill-rule="evenodd">
        <path d="M9.80858749,3.20580846 L1.33858749,17.3458085 C0.890327971,18.1219633 0.887675853,19.0691474 1.32755909,19.8408724 C1.76744232,20.6125974 2.58379096,21.092951 3.47202594,21.102744 L20.4175212,21.102744 C21.3112514,21.092951 22.1276001,20.6125974 22.5674833,19.8408724 C23.0073665,19.0691474 23.0047144,18.1219633 22.5605165,17.3527138 L14.0864549,3.20580846 C13.6318141,2.45628166 12.8213789,2 11.9475212,2 C11.0736635,2 10.2632283,2.45628166 9.8100212,3.20343001 L9.80858749,3.20580846 Z M11.9475212,3 C12.4718358,3 12.958097,3.27376899 13.2300212,3.722058 L21.6985875,17.8596795 C21.9610447,18.3143239 21.962636,18.8826344 21.698706,19.3456694 C21.4347761,19.8087043 20.9449669,20.0969165 20.4120259,20.1027742 L3.4775212,20.1027742 C2.95007548,20.0969165 2.4602663,19.8087043 2.19633636,19.3456694 C1.93240642,18.8826344 1.93399769,18.3143239 2.20051647,17.8527742 L10.6664549,3.71967954 C10.9369454,3.27376899 11.4232066,3 11.9475212,3 Z" id="Shape" fill="#000000" fill-rule="nonzero"></path>
    </g>
</svg>
